config/expand/iconfont/module-menu/module-caiwuguanli.svg

<?xml version="1.0" encoding="UTF-8"?>
<svg width="23px" height="22px" viewBox="0 0 23 22" version="1.1" xmlns="http://www.w3.org/2000/svg" xmlns:xlink="http://www.w3.org/1999/xlink">
    <!-- Generator: Sketch 53 (72520) - https://sketchapp.com -->
    <title>caiwuguanli</title>
    <desc>Created with Sketch.</desc>
    <defs>
        <linearGradient x1="80.3358337%" y1="0%" x2="50%" y2="32.2586427%" id="linearGradient-1">
            <stop stop-color="#B7B7B7" offset="0%"></stop>
            <stop stop-color="#FFFFFF" offset="100%"></stop>
        </linearGradient>
        <linearGradient x1="82.3245512%" y1="0%" x2="82.3245512%" y2="111.749478%" id="linearGradient-2">
            <stop stop-color="#B7B7B7" offset="0%"></stop>
            <stop stop-color="#FFFFFF" offset="100%"></stop>
        </linearGradient>
    </defs>
    <g id="Page-2" stroke="none" stroke-width="1" fill="none" fill-rule="evenodd">
        <g id="图标" transform="translate(-625.000000, -341.000000)">
            <g id="caiwuguanli" transform="translate(625.000000, 341.000000)">
                <ellipse id="Oval" fill="url(#linearGradient-1)" cx="15.09375" cy="8.16129032" rx="7.90625" ry="8.16129032"></ellipse>
                <path d="M9.76279103,2.83889123 C5.83297214,2.81508581 2.27668258,5.13414622 0.75607063,8.71218369 C-0.76454132,12.2902212 0.0508471701,16.4205687 2.82113761,19.1727732 C5.59142805,21.9249776 9.76948449,22.7554751 13.4025555,21.2761055 C17.0356266,19.7967359 19.406176,16.2996765 19.40625,12.4193925 C19.4063504,7.1510965 15.098341,2.87121206 9.76279103,2.83889123 Z M9.703125,20.1899003 C6.62858871,20.1899003 3.48907044,18.0862398 2.31249635,15.2815956 C1.13592225,12.4769514 2.15950743,9.00399673 4.33353289,6.857415 C6.50755835,4.71083327 10.025972,4.21999732 12.8664731,5.38171899 C15.7069743,6.54344065 17.7494698,9.3114454 17.7494698,12.3471704 C17.7532651,14.3389213 16.5852502,16.5212175 15.1588612,17.9296005 C13.7324722,19.3379836 11.7203401,20.1936477 9.703125,20.1899003 Z" id="Shape" fill="#333333" fill-rule="nonzero"></path>
                <polygon id="Shape" fill="url(#linearGradient-2)" points="12.9375 14.9032258 10.235 14.6590846 7.1875 14.892611 7.39450001 12.3344362 7.1875 9.93548387 10.2005 10.1690102 12.9375 9.93548387 12.7075 12.4193548"></polygon>
            </g>
        </g>
    </g>
</svg>

<svg width="23" height="22" xmlns="http://www.w3.org/2000/svg"><defs><linearGradient x1="80.336%" y1="0%" x2="50%" y2="32.259%" id="a"><stop stop-color="#B7B7B7" offset="0%"/><stop stop-color="#FFF" offset="100%"/></linearGradient><linearGradient x1="82.325%" y1="0%" x2="82.325%" y2="111.749%" id="b"><stop stop-color="#B7B7B7" offset="0%"/><stop stop-color="#FFF" offset="100%"/></linearGradient></defs><g><ellipse cx="15.094" cy="8.161" rx="7.906" ry="8.161"/><path d="M9.763 2.839C5.833 2.815 2.277 5.134.756 8.712a9.492 9.492 0 002.065 10.46c2.77 2.753 6.948 3.583 10.582 2.104 3.633-1.48 6.003-4.976 6.003-8.857 0-5.268-4.308-9.548-9.643-9.58zm-.06 17.35c-3.074 0-6.214-2.103-7.39-4.907-1.177-2.805-.153-6.278 2.02-8.425 2.175-2.146 5.693-2.637 8.533-1.475 2.841 1.161 4.883 3.93 4.883 6.965.004 1.992-1.164 4.174-2.59 5.583-1.427 1.408-3.439 2.264-5.456 2.26z"/><path d="M12.938 14.903l-2.703-.244-3.047.234.207-2.559-.207-2.399 3.013.234 2.736-.234-.23 2.484z"/></g></svg>
